; G-Code generated by Simplify3D(R) Version 4.0.0
; Nov 1, 2018 at 12:02:13 AM
; Settings Summary
;   processName,Process1
;   applyToModels,Left X Carriage
;   profileName,Hypercube
;   profileVersion,2018-10-17 21:38:10
;   baseProfile,Default
;   printMaterial,PLA
;   printQuality,Medium
;   printExtruders,
;   extruderName,Primary Extruder
;   extruderToolheadNumber,0
;   extruderDiameter,0.4
;   extruderAutoWidth,1
;   extruderWidth,0.48
;   extrusionMultiplier,0.9
;   extruderUseRetract,1
;   extruderRetractionDistance,4
;   extruderExtraRestartDistance,0
;   extruderRetractionZLift,0
;   extruderRetractionSpeed,12000
;   extruderUseCoasting,0
;   extruderCoastingDistance,3
;   extruderUseWipe,0
;   extruderWipeDistance,6
;   primaryExtruder,0
;   layerHeight,0.2
;   topSolidLayers,5
;   bottomSolidLayers,5
;   perimeterOutlines,3
;   printPerimetersInsideOut,1
;   startPointOption,3
;   startPointOriginX,0
;   startPointOriginY,0
;   sequentialIslands,0
;   spiralVaseMode,0
;   firstLayerHeightPercentage,90
;   firstLayerWidthPercentage,100
;   firstLayerUnderspeed,0.5
;   useRaft,0
;   raftExtruder,0
;   raftTopLayers,3
;   raftBaseLayers,2
;   raftOffset,3
;   raftSeparationDistance,0.14
;   raftTopInfill,100
;   aboveRaftSpeedMultiplier,0.3
;   useSkirt,0
;   skirtExtruder,0
;   skirtLayers,1
;   skirtOutlines,2
;   skirtOffset,8
;   usePrimePillar,0
;   primePillarExtruder,999
;   primePillarWidth,12
;   primePillarLocation,7
;   primePillarSpeedMultiplier,1
;   useOozeShield,0
;   oozeShieldExtruder,999
;   oozeShieldOffset,2
;   oozeShieldOutlines,1
;   oozeShieldSidewallShape,1
;   oozeShieldSidewallAngle,30
;   oozeShieldSpeedMultiplier,1
;   infillExtruder,0
;   internalInfillPattern,Rectilinear
;   externalInfillPattern,Rectilinear
;   infillPercentage,10
;   outlineOverlapPercentage,15
;   infillExtrusionWidthPercentage,100
;   minInfillLength,5
;   infillLayerInterval,1
;   internalInfillAngles,45,-45
;   overlapInternalInfillAngles,0
;   externalInfillAngles,45,-45
;   generateSupport,0
;   supportExtruder,0
;   supportInfillPercentage,30
;   supportExtraInflation,0
;   supportBaseLayers,0
;   denseSupportExtruder,0
;   denseSupportLayers,0
;   denseSupportInfillPercentage,70
;   supportLayerInterval,1
;   supportHorizontalPartOffset,0.3
;   supportUpperSeparationLayers,1
;   supportLowerSeparationLayers,1
;   supportType,0
;   supportGridSpacing,4
;   maxOverhangAngle,45
;   supportAngles,0
;   temperatureName,Primary Extruder,Heat Bed
;   temperatureNumber,0,0
;   temperatureSetpointCount,1,1
;   temperatureSetpointLayers,1,1
;   temperatureSetpointTemperatures,210,60
;   temperatureStabilizeAtStartup,1,1
;   temperatureHeatedBed,0,1
;   temperatureRelayBetweenLayers,0,0
;   temperatureRelayBetweenLoops,0,0
;   fanLayers,1,2
;   fanSpeeds,0,100
;   blipFanToFullPower,0
;   adjustSpeedForCooling,1
;   minSpeedLayerTime,15
;   minCoolingSpeedSlowdown,20
;   increaseFanForCooling,0
;   minFanLayerTime,45
;   maxCoolingFanSpeed,100
;   increaseFanForBridging,0
;   bridgingFanSpeed,100
;   use5D,1
;   relativeEdistances,0
;   allowEaxisZeroing,1
;   independentExtruderAxes,0
;   includeM10123,0
;   stickySupport,1
;   applyToolheadOffsets,0
;   gcodeXoffset,0
;   gcodeYoffset,0
;   gcodeZoffset,0
;   overrideMachineDefinition,0
;   machineTypeOverride,0
;   strokeXoverride,200
;   strokeYoverride,200
;   strokeZoverride,200
;   originOffsetXoverride,0
;   originOffsetYoverride,0
;   originOffsetZoverride,0
;   homeXdirOverride,-1
;   homeYdirOverride,-1
;   homeZdirOverride,-1
;   flipXoverride,1
;   flipYoverride,-1
;   flipZoverride,1
;   toolheadOffsets,0,0|0,0|0,0|0,0|0,0|0,0
;   overrideFirmwareConfiguration,1
;   firmwareTypeOverride,RepRap (Marlin/Repetier/Sprinter)
;   GPXconfigOverride,r2
;   baudRateOverride,250000
;   overridePrinterModels,0
;   printerModelsOverride
;   startingGcode,G28 ; home all axes,G92 E0 ; reset extruder,G1 Z1.0 F3000 ; move z up little to prevent scratching of surface,G1 X0.1 Y20 Z0.3 F5000.0 ; move to start-line position,G1 X0.1 Y200.0 Z0.3 F1500.0 E15 ; draw 1st line,G1 X0.4 Y200.0 Z0.3 F5000.0 ; move to side a little,G1 X0.4 Y20 Z0.3 F1500.0 E30 ; draw 2nd line,G92 E0 ; reset extruder,; done purging extruder,G1 Z1.0 F3000 ; move z up little to prevent scratching of surface,M117 Hypercube Tunned
;   layerChangeGcode,
;   retractionGcode,
;   toolChangeGcode,
;   endingGcode,G1 E-5 F1000,,M104 S0; turn off extruder,M140 S0 ; turn off bed,G1 X0 Y200 Z200 F1000 ; prepare for part removal,M84 ; disable motors,M106 S0 ; turn off fan,,G1 E5 F1000,,M300 S294 P200 ;D4: 294,M300 S588 P200 ;D5: 588,M300 S440 P200 ;A4: 440,M300 S392 P200 ;G4: 392,M300 S784 P200 ;G5: 784,M300 S440 P200 ;A4: 440,M300 S740 P200 ;F#5: 740,M300 S440 P200 ;A4: 440
;   exportFileFormat,gcode
;   celebration,0
;   celebrationSong,Star Wars
;   postProcessing,
;   defaultSpeed,12000
;   outlineUnderspeed,0.4
;   solidInfillUnderspeed,0.6
;   supportUnderspeed,0.8
;   rapidXYspeed,12000
;   rapidZspeed,12000
;   minBridgingArea,50
;   bridgingExtraInflation,0
;   bridgingExtrusionMultiplier,1
;   bridgingSpeedMultiplier,1
;   useFixedBridgingAngle,0
;   fixedBridgingAngle,0
;   applyBridgingToPerimeters,1
;   filamentDiameters,1.75|1.75|1.75|1.75|1.75|1.75
;   filamentPricesPerKg,35|46|46|46|46|46
;   filamentDensities,1.25|1.25|1.25|1.25|1.25|1.25
;   useMinPrintHeight,0
;   minPrintHeight,0
;   useMaxPrintHeight,0
;   maxPrintHeight,30
;   useDiaphragm,0
;   diaphragmLayerInterval,20
;   robustSlicing,1
;   mergeAllIntoSolid,0
;   onlyRetractWhenCrossingOutline,1
;   retractBetweenLayers,1
;   useRetractionMinTravel,0
;   retractionMinTravel,3
;   retractWhileWiping,1
;   onlyWipeOutlines,0
;   avoidCrossingOutline,1
;   maxMovementDetourFactor,8
;   toolChangeRetractionDistance,12
;   toolChangeExtraRestartDistance,-0.5
;   toolChangeRetractionSpeed,600
;   externalThinWallType,0
;   internalThinWallType,2
;   thinWallAllowedOverlapPercentage,10
;   singleExtrusionMinLength,1
;   singleExtrusionMinPrintingWidthPercentage,50
;   singleExtrusionMaxPrintingWidthPercentage,200
;   singleExtrusionEndpointExtension,0.2
;   horizontalSizeCompensation,0
G90
M82
M106 S0
M140 S60
M190 S60
M104 S210 T0
M109 S210 T0
G28 ; home all axes
G92 E0 ; reset extruder
G1 Z1.0 F3000 ; move z up little to prevent scratching of surface
G1 X0.1 Y20 Z0.3 F5000.0 ; move to start-line position
G1 X0.1 Y200.0 Z0.3 F1500.0 E15 ; draw 1st line
G1 X0.4 Y200.0 Z0.3 F5000.0 ; move to side a little
G1 X0.4 Y20 Z0.3 F1500.0 E30 ; draw 2nd line
G92 E0 ; reset extruder
; done purging extruder
G1 Z1.0 F3000 ; move z up little to prevent scratching of surface
M117 Hypercube Tunned
G92 E0
G1 E-4.0000 F12000
G1 Z0.180 F12000
; process Process1
; layer 1, Z = 0.180
T0
; tool H0.200 W0.480
; inner perimeter
G1 X107.078 Y133.947 F12000
G1 E0.0000 F3600
G92 E0
G1 X110.101 Y131.927 E0.1306 F4200
G1 X113.362 Y130.319 E0.2612
G1 X116.805 Y129.150 E0.3918
G1 X120.372 Y128.440 E0.5224
G1 X124.039 Y128.200 E0.6545
G1 X172.964 Y128.200 E2.4119
G1 X176.708 Y128.426 E2.5466
G1 X180.362 Y129.095 E2.6801
G1 X183.920 Y130.203 E2.8139
G1 X187.307 Y131.727 E2.9473
G1 X190.487 Y133.649 E3.0808
G1 X193.420 Y135.945 E3.2146
G1 X196.052 Y138.577 E3.3483
G1 X198.346 Y141.504 E3.4819
G1 X200.268 Y144.683 E3.6153
G1 X201.796 Y148.079 E3.7491
G1 X202.902 Y151.627 E3.8826
G1 X203.573 Y155.288 E4.0163
G1 X203.800 Y159.025 E4.1508
G1 X203.800 Y162.948 E4.2917
G1 X203.662 Y164.521 E4.3484
G1 X203.266 Y166.006 E4.4036
G1 X202.619 Y167.394 E4.4586
G1 X201.741 Y168.649 E4.5137
G1 X200.654 Y169.737 E4.5689
G1 X199.399 Y170.616 E4.6239
G1 X198.011 Y171.264 E4.6790
G1 X196.531 Y171.661 E4.7340
G1 X194.953 Y171.800 E4.7909
G1 X96.200 Y171.800 E8.3382
G1 X96.200 Y156.039 E8.9043
G1 X96.440 Y152.372 E9.0364
G1 X97.150 Y148.805 E9.1670
G1 X98.319 Y145.362 E9.2976
G1 X99.927 Y142.101 E9.4282
G1 X101.947 Y139.078 E9.5588
G1 X104.344 Y136.344 E9.6894
G1 X107.078 Y133.947 E9.8200
G1 X106.785 Y133.565 F12000
G92 E0
G1 X109.861 Y131.510 E0.1329 F4200
G1 X113.178 Y129.874 E0.2657
G1 X116.681 Y128.685 E0.3986
G1 X120.309 Y127.963 E0.5315
G1 X124.024 Y127.720 E0.6652
G1 X172.978 Y127.720 E2.4237
G1 X176.766 Y127.949 E2.5600
G1 X180.477 Y128.628 E2.6955
G1 X184.090 Y129.753 E2.8315
G1 X187.531 Y131.302 E2.9670
G1 X190.760 Y133.253 E3.1025
G1 X193.739 Y135.585 E3.2384
G1 X196.412 Y138.259 E3.3742
G1 X198.741 Y141.231 E3.5099
G1 X200.693 Y144.460 E3.6454
G1 X202.246 Y147.909 E3.7813
G1 X203.369 Y151.512 E3.9168
G1 X204.051 Y155.230 E4.0526
G1 X204.280 Y159.011 E4.1887
G1 X204.280 Y162.969 E4.3308
G1 X204.137 Y164.604 E4.3898
G1 X203.719 Y166.170 E4.4480
G1 X203.036 Y167.635 E4.5061
G1 X202.110 Y168.959 E4.5641
G1 X200.964 Y170.106 E4.6224
G1 X199.640 Y171.033 E4.6804
G1 X198.176 Y171.717 E4.7385
G1 X196.615 Y172.135 E4.7965
G1 X194.974 Y172.280 E4.8557
G1 X95.720 Y172.280 E8.4210
G1 X95.720 Y156.024 E9.0049
G1 X95.963 Y152.309 E9.1387
G1 X96.685 Y148.681 E9.2715
G1 X97.874 Y145.178 E9.4044
G1 X99.510 Y141.861 E9.5373
G1 X101.565 Y138.785 E9.6702
G1 X104.004 Y136.004 E9.8030
G1 X106.785 Y133.565 E9.9359
; outer perimeter
G1 X106.492 Y133.184 F12000
G92 E0
G1 X109.620 Y131.094 E0.1351 F2400
G1 X112.994 Y129.430 E0.2703
G1 X116.556 Y128.220 E0.4054
G1 X120.246 Y127.487 E0.5405
G1 X124.008 Y127.240 E0.6759
G1 X172.993 Y127.240 E2.4355
G1 X176.824 Y127.472 E2.5734
G1 X180.592 Y128.162 E2.7110
G1 X184.261 Y129.304 E2.8490
G1 X187.754 Y130.876 E2.9866
G1 X191.033 Y132.857 E3.1242
G1 X194.058 Y135.225 E3.2622
G1 X196.772 Y137.940 E3.4001
G1 X199.137 Y140.958 E3.5379
G1 X201.119 Y144.236 E3.6755
G1 X202.696 Y147.738 E3.8134
G1 X203.836 Y151.397 E3.9511
G1 X204.528 Y155.172 E4.0889
G1 X204.760 Y158.996 E4.2266
G1 X204.760 Y162.989 E4.3700
G1 X204.611 Y164.688 E4.4313
G1 X204.172 Y166.335 E4.4925
G1 X203.454 Y167.876 E4.5535
G1 X202.479 Y169.268 E4.6146
G1 X201.274 Y170.475 E4.6759
G1 X199.881 Y171.450 E4.7369
G1 X198.341 Y172.169 E4.7980
G1 X196.699 Y172.610 E4.8591
G1 X194.995 Y172.760 E4.9205
G1 X95.240 Y172.760 E8.5038
G1 X95.240 Y156.008 E9.1056
G1 X95.487 Y152.246 E9.2410
G1 X96.220 Y148.556 E9.3761
G1 X97.430 Y144.994 E9.5112
G1 X99.094 Y141.620 E9.6464
G1 X101.184 Y138.492 E9.7815
G1 X103.664 Y135.664 E9.9166
G1 X106.492 Y133.184 E10.0518
; inner perimeter
G1 X109.385 Y137.140 F12000
G92 E0
G1 X109.021 Y137.504 E0.0185 F4200
G1 X108.725 Y137.926 E0.0370
G1 X108.508 Y138.392 E0.0555
G1 X108.374 Y138.890 E0.0740
G1 X108.329 Y139.403 E0.0925
G1 X108.374 Y139.916 E0.1110
G1 X108.508 Y140.413 E0.1295
G1 X108.725 Y140.880 E0.1480
G1 X109.021 Y141.302 E0.1665
G1 X109.385 Y141.666 E0.1850
G1 X109.807 Y141.962 E0.2035
G1 X110.273 Y142.179 E0.2220
G1 X110.871 Y142.339 E0.2442
G1 X110.700 Y142.707 E0.2588
G1 X110.397 Y143.836 E0.3008
G1 X110.295 Y145.000 E0.3427
G1 X110.397 Y146.164 E0.3847
G1 X110.700 Y147.293 E0.4267
G1 X110.934 Y147.795 E0.4466
G1 X110.392 Y147.940 E0.4667
G1 X109.926 Y148.157 E0.4852
G1 X109.504 Y148.453 E0.5037
G1 X109.140 Y148.817 E0.5222
G1 X108.844 Y149.239 E0.5407
G1 X108.627 Y149.706 E0.5592
G1 X108.493 Y150.203 E0.5777
G1 X108.448 Y150.716 E0.5962
G1 X108.493 Y151.229 E0.6147
G1 X108.627 Y151.727 E0.6332
G1 X108.844 Y152.193 E0.6517
G1 X109.140 Y152.615 E0.6702
G1 X109.504 Y152.979 E0.6887
G1 X109.926 Y153.275 E0.7072
G1 X110.392 Y153.492 E0.7257
G1 X110.890 Y153.626 E0.7442
G1 X111.403 Y153.671 E0.7627
G1 X111.916 Y153.626 E0.7812
G1 X112.413 Y153.492 E0.7997
G1 X112.880 Y153.275 E0.8182
G1 X113.302 Y152.979 E0.8367
G1 X113.666 Y152.615 E0.8552
G1 X113.962 Y152.193 E0.8737
G1 X114.179 Y151.727 E0.8922
G1 X114.339 Y151.129 E0.9144
G1 X114.707 Y151.300 E0.9290
G1 X115.836 Y151.603 E0.9710
G1 X117.000 Y151.705 E1.0130
G1 X118.164 Y151.603 E1.0549
G1 X119.293 Y151.300 E1.0969
G1 X119.795 Y151.066 E1.1168
G1 X119.940 Y151.608 E1.1369
G1 X120.157 Y152.074 E1.1554
G1 X120.453 Y152.496 E1.1739
G1 X120.817 Y152.860 E1.1924
G1 X121.239 Y153.156 E1.2109
G1 X121.706 Y153.373 E1.2294
G1 X122.203 Y153.507 E1.2479
G1 X122.716 Y153.552 E1.2664
G1 X123.229 Y153.507 E1.2849
G1 X123.727 Y153.373 E1.3034
G1 X124.193 Y153.156 E1.3219
G1 X124.615 Y152.860 E1.3404
G1 X124.979 Y152.496 E1.3589
G1 X125.275 Y152.074 E1.3774
G1 X125.492 Y151.608 E1.3959
G1 X125.626 Y151.110 E1.4144
G1 X125.671 Y150.597 E1.4329
G1 X125.626 Y150.084 E1.4514
G1 X125.492 Y149.586 E1.4699
G1 X125.275 Y149.120 E1.4884
G1 X124.979 Y148.698 E1.5069
G1 X124.615 Y148.334 E1.5254
G1 X124.193 Y148.038 E1.5439
G1 X123.727 Y147.821 E1.5624
G1 X123.129 Y147.660 E1.5846
G1 X123.300 Y147.293 E1.5992
G1 X123.603 Y146.164 E1.6412
G1 X123.705 Y145.000 E1.6832
G1 X123.603 Y143.836 E1.7252
G1 X123.300 Y142.707 E1.7671
G1 X123.066 Y142.205 E1.7870
G1 X123.608 Y142.060 E1.8071
G1 X124.074 Y141.843 E1.8256
G1 X124.496 Y141.547 E1.8441
G1 X124.860 Y141.183 E1.8626
G1 X125.156 Y140.761 E1.8811
G1 X125.373 Y140.294 E1.8996
G1 X125.507 Y139.797 E1.9181
G1 X125.552 Y139.284 E1.9366
G1 X125.507 Y138.771 E1.9551
G1 X125.373 Y138.273 E1.9736
G1 X125.156 Y137.807 E1.9921
G1 X124.860 Y137.385 E2.0106
G1 X124.496 Y137.021 E2.0291
G1 X124.074 Y136.725 E2.0476
G1 X123.608 Y136.508 E2.0661
G1 X123.110 Y136.374 E2.0846
G1 X122.597 Y136.329 E2.1031
G1 X122.084 Y136.374 E2.1216
G1 X121.587 Y136.508 E2.1401
G1 X121.120 Y136.725 E2.1586
G1 X120.698 Y137.021 E2.1771
G1 X120.334 Y137.385 E2.1956
G1 X120.038 Y137.807 E2.2141
G1 X119.821 Y138.273 E2.2326
G1 X119.660 Y138.871 E2.2549
G1 X119.293 Y138.700 E2.2694
G1 X118.164 Y138.397 E2.3114
G1 X117.000 Y138.295 E2.3534
G1 X115.836 Y138.397 E2.3954
G1 X114.707 Y138.700 E2.4373
G1 X114.205 Y138.934 E2.4572
G1 X114.060 Y138.392 E2.4773
G1 X113.843 Y137.926 E2.4958
G1 X113.547 Y137.504 E2.5143
G1 X113.183 Y137.140 E2.5328
G1 X112.761 Y136.844 E2.5513
G1 X112.294 Y136.627 E2.5698
G1 X111.797 Y136.493 E2.5883
G1 X111.284 Y136.448 E2.6068
G1 X110.771 Y136.493 E2.6253
G1 X110.273 Y136.627 E2.6438
G1 X109.807 Y136.844 E2.6623
G1 X109.385 Y137.140 E2.6808
G1 X109.694 Y137.509 F12000
G92 E0
G1 X109.390 Y137.814 E0.0155 F4200
G1 X109.142 Y138.167 E0.0310
G1 X108.960 Y138.557 E0.0465
G1 X108.849 Y138.974 E0.0619
G1 X108.811 Y139.403 E0.0774
G1 X108.849 Y139.832 E0.0929
G1 X108.960 Y140.249 E0.1084
G1 X109.142 Y140.639 E0.1239
G1 X109.390 Y140.992 E0.1393
G1 X109.695 Y141.297 E0.1548
G1 X110.048 Y141.544 E0.1703
G1 X110.438 Y141.727 E0.1858
G1 X110.855 Y141.838 E0.2013
G1 X111.604 Y141.904 E0.2283
G1 X111.153 Y142.872 E0.2667
G1 X110.872 Y143.919 E0.3056
G1 X110.777 Y145.000 E0.3446
G1 X110.872 Y146.081 E0.3836
G1 X111.153 Y147.128 E0.4225
G1 X111.662 Y148.221 E0.4658
G1 X110.974 Y148.281 E0.4906
G1 X110.557 Y148.392 E0.5061
G1 X110.167 Y148.575 E0.5216
G1 X109.814 Y148.822 E0.5371
G1 X109.509 Y149.127 E0.5526
G1 X109.262 Y149.480 E0.5680
G1 X109.079 Y149.870 E0.5835
G1 X108.968 Y150.287 E0.5990
G1 X108.930 Y150.716 E0.6145
G1 X108.968 Y151.145 E0.6300
G1 X109.079 Y151.562 E0.6455
G1 X109.261 Y151.952 E0.6609
G1 X109.509 Y152.305 E0.6764
G1 X109.814 Y152.610 E0.6919
G1 X110.167 Y152.858 E0.7074
G1 X110.557 Y153.040 E0.7229
G1 X110.974 Y153.151 E0.7384
G1 X111.403 Y153.189 E0.7538
G1 X111.832 Y153.151 E0.7693
G1 X112.249 Y153.040 E0.7848
G1 X112.639 Y152.858 E0.8003
G1 X112.992 Y152.610 E0.8158
G1 X113.297 Y152.305 E0.8313
G1 X113.544 Y151.952 E0.8467
G1 X113.727 Y151.562 E0.8622
G1 X113.838 Y151.145 E0.8777
G1 X113.904 Y150.396 E0.9047
G1 X114.872 Y150.847 E0.9431
G1 X115.919 Y151.128 E0.9821
G1 X117.000 Y151.223 E1.0210
G1 X118.081 Y151.128 E1.0600
G1 X119.128 Y150.847 E1.0989
G1 X120.221 Y150.338 E1.1422
G1 X120.281 Y151.026 E1.1671
G1 X120.392 Y151.443 E1.1825
G1 X120.575 Y151.833 E1.1980
G1 X120.822 Y152.186 E1.2135
G1 X121.127 Y152.491 E1.2290
G1 X121.480 Y152.738 E1.2445
G1 X121.870 Y152.921 E1.2600
G1 X122.287 Y153.032 E1.2754
G1 X122.716 Y153.070 E1.2909
G1 X123.145 Y153.032 E1.3064
G1 X123.562 Y152.921 E1.3219
G1 X123.952 Y152.738 E1.3374
G1 X124.305 Y152.491 E1.3529
G1 X124.610 Y152.187 E1.3683
G1 X124.858 Y151.833 E1.3838
G1 X125.040 Y151.443 E1.3993
G1 X125.151 Y151.026 E1.4148
