; G-Code generated by Simplify3D(R) Version 4.0.0
; Oct 31, 2018 at 7:51:10 PM
; Settings Summary
;   processName,Process1
;   applyToModels,Right X Carriage
;   profileName,Hypercube
;   profileVersion,2018-10-17 21:38:10
;   baseProfile,Default
;   printMaterial,PLA
;   printQuality,Medium
;   printExtruders,
;   extruderName,Primary Extruder
;   extruderToolheadNumber,0
;   extruderDiameter,0.4
;   extruderAutoWidth,1
;   extruderWidth,0.48
;   extrusionMultiplier,0.9
;   extruderUseRetract,1
;   extruderRetractionDistance,4
;   extruderExtraRestartDistance,0
;   extruderRetractionZLift,0
;   extruderRetractionSpeed,12000
;   extruderUseCoasting,0
;   extruderCoastingDistance,3
;   extruderUseWipe,0
;   extruderWipeDistance,6
;   primaryExtruder,0
;   layerHeight,0.2
;   topSolidLayers,5
;   bottomSolidLayers,5
;   perimeterOutlines,3
;   printPerimetersInsideOut,1
;   startPointOption,3
;   startPointOriginX,0
;   startPointOriginY,0
;   sequentialIslands,0
;   spiralVaseMode,0
;   firstLayerHeightPercentage,90
;   firstLayerWidthPercentage,100
;   firstLayerUnderspeed,0.5
;   useRaft,0
;   raftExtruder,0
;   raftTopLayers,3
;   raftBaseLayers,2
;   raftOffset,3
;   raftSeparationDistance,0.14
;   raftTopInfill,100
;   aboveRaftSpeedMultiplier,0.3
;   useSkirt,0
;   skirtExtruder,0
;   skirtLayers,1
;   skirtOutlines,2
;   skirtOffset,8
;   usePrimePillar,0
;   primePillarExtruder,999
;   primePillarWidth,12
;   primePillarLocation,7
;   primePillarSpeedMultiplier,1
;   useOozeShield,0
;   oozeShieldExtruder,999
;   oozeShieldOffset,2
;   oozeShieldOutlines,1
;   oozeShieldSidewallShape,1
;   oozeShieldSidewallAngle,30
;   oozeShieldSpeedMultiplier,1
;   infillExtruder,0
;   internalInfillPattern,Rectilinear
;   externalInfillPattern,Rectilinear
;   infillPercentage,10
;   outlineOverlapPercentage,15
;   infillExtrusionWidthPercentage,100
;   minInfillLength,5
;   infillLayerInterval,1
;   internalInfillAngles,45,-45
;   overlapInternalInfillAngles,0
;   externalInfillAngles,45,-45
;   generateSupport,0
;   supportExtruder,0
;   supportInfillPercentage,30
;   supportExtraInflation,0
;   supportBaseLayers,0
;   denseSupportExtruder,0
;   denseSupportLayers,0
;   denseSupportInfillPercentage,70
;   supportLayerInterval,1
;   supportHorizontalPartOffset,0.3
;   supportUpperSeparationLayers,1
;   supportLowerSeparationLayers,1
;   supportType,0
;   supportGridSpacing,4
;   maxOverhangAngle,45
;   supportAngles,0
;   temperatureName,Primary Extruder,Heat Bed
;   temperatureNumber,0,0
;   temperatureSetpointCount,1,1
;   temperatureSetpointLayers,1,1
;   temperatureSetpointTemperatures,210,60
;   temperatureStabilizeAtStartup,1,1
;   temperatureHeatedBed,0,1
;   temperatureRelayBetweenLayers,0,0
;   temperatureRelayBetweenLoops,0,0
;   fanLayers,1,2
;   fanSpeeds,0,100
;   blipFanToFullPower,0
;   adjustSpeedForCooling,1
;   minSpeedLayerTime,15
;   minCoolingSpeedSlowdown,20
;   increaseFanForCooling,0
;   minFanLayerTime,45
;   maxCoolingFanSpeed,100
;   increaseFanForBridging,0
;   bridgingFanSpeed,100
;   use5D,1
;   relativeEdistances,0
;   allowEaxisZeroing,1
;   independentExtruderAxes,0
;   includeM10123,0
;   stickySupport,1
;   applyToolheadOffsets,0
;   gcodeXoffset,0
;   gcodeYoffset,0
;   gcodeZoffset,0
;   overrideMachineDefinition,0
;   machineTypeOverride,0
;   strokeXoverride,200
;   strokeYoverride,200
;   strokeZoverride,200
;   originOffsetXoverride,0
;   originOffsetYoverride,0
;   originOffsetZoverride,0
;   homeXdirOverride,-1
;   homeYdirOverride,-1
;   homeZdirOverride,-1
;   flipXoverride,1
;   flipYoverride,-1
;   flipZoverride,1
;   toolheadOffsets,0,0|0,0|0,0|0,0|0,0|0,0
;   overrideFirmwareConfiguration,1
;   firmwareTypeOverride,RepRap (Marlin/Repetier/Sprinter)
;   GPXconfigOverride,r2
;   baudRateOverride,250000
;   overridePrinterModels,0
;   printerModelsOverride
;   startingGcode,G28 ; home all axes,G92 E0 ; reset extruder,G1 Z1.0 F3000 ; move z up little to prevent scratching of surface,G1 X0.1 Y20 Z0.3 F5000.0 ; move to start-line position,G1 X0.1 Y200.0 Z0.3 F1500.0 E15 ; draw 1st line,G1 X0.4 Y200.0 Z0.3 F5000.0 ; move to side a little,G1 X0.4 Y20 Z0.3 F1500.0 E30 ; draw 2nd line,G92 E0 ; reset extruder,; done purging extruder,G1 Z1.0 F3000 ; move z up little to prevent scratching of surface,M117 Hypercube Tunned
;   layerChangeGcode,
;   retractionGcode,
;   toolChangeGcode,
;   endingGcode,G1 E-5 F1000,,M104 S0; turn off extruder,M140 S0 ; turn off bed,G1 X0 Y200 Z200 F1000 ; prepare for part removal,M84 ; disable motors,M106 S0 ; turn off fan,,G1 E5 F1000,,M300 S294 P200 ;D4: 294,M300 S588 P200 ;D5: 588,M300 S440 P200 ;A4: 440,M300 S392 P200 ;G4: 392,M300 S784 P200 ;G5: 784,M300 S440 P200 ;A4: 440,M300 S740 P200 ;F#5: 740,M300 S440 P200 ;A4: 440
;   exportFileFormat,gcode
;   celebration,0
;   celebrationSong,Star Wars
;   postProcessing,
;   defaultSpeed,12000
;   outlineUnderspeed,0.4
;   solidInfillUnderspeed,0.6
;   supportUnderspeed,0.8
;   rapidXYspeed,12000
;   rapidZspeed,12000
;   minBridgingArea,50
;   bridgingExtraInflation,0
;   bridgingExtrusionMultiplier,1
;   bridgingSpeedMultiplier,1
;   useFixedBridgingAngle,0
;   fixedBridgingAngle,0
;   applyBridgingToPerimeters,1
;   filamentDiameters,1.75|1.75|1.75|1.75|1.75|1.75
;   filamentPricesPerKg,35|46|46|46|46|46
;   filamentDensities,1.25|1.25|1.25|1.25|1.25|1.25
;   useMinPrintHeight,0
;   minPrintHeight,0
;   useMaxPrintHeight,0
;   maxPrintHeight,30
;   useDiaphragm,0
;   diaphragmLayerInterval,20
;   robustSlicing,1
;   mergeAllIntoSolid,0
;   onlyRetractWhenCrossingOutline,1
;   retractBetweenLayers,1
;   useRetractionMinTravel,0
;   retractionMinTravel,3
;   retractWhileWiping,1
;   onlyWipeOutlines,0
;   avoidCrossingOutline,1
;   maxMovementDetourFactor,8
;   toolChangeRetractionDistance,12
;   toolChangeExtraRestartDistance,-0.5
;   toolChangeRetractionSpeed,600
;   externalThinWallType,0
;   internalThinWallType,2
;   thinWallAllowedOverlapPercentage,10
;   singleExtrusionMinLength,1
;   singleExtrusionMinPrintingWidthPercentage,50
;   singleExtrusionMaxPrintingWidthPercentage,200
;   singleExtrusionEndpointExtension,0.2
;   horizontalSizeCompensation,0
G90
M82
M106 S0
M140 S60
M190 S60
M104 S210 T0
M109 S210 T0
G28 ; home all axes
G92 E0 ; reset extruder
G1 Z1.0 F3000 ; move z up little to prevent scratching of surface
G1 X0.1 Y20 Z0.3 F5000.0 ; move to start-line position
G1 X0.1 Y200.0 Z0.3 F1500.0 E15 ; draw 1st line
G1 X0.4 Y200.0 Z0.3 F5000.0 ; move to side a little
G1 X0.4 Y20 Z0.3 F1500.0 E30 ; draw 2nd line
G92 E0 ; reset extruder
; done purging extruder
G1 Z1.0 F3000 ; move z up little to prevent scratching of surface
M117 Hypercube Tunned
G92 E0
G1 E-4.0000 F12000
G1 Z0.180 F12000
; process Process1
; layer 1, Z = 0.180
T0
; tool H0.200 W0.480
; inner perimeter
G1 X121.397 Y132.423 F12000
G1 E0.0000 F3600
G92 E0
G1 X123.549 Y130.738 E0.0982 F4200
G1 X125.891 Y129.322 E0.1965
G1 X128.416 Y128.184 E0.2960
G1 X131.036 Y127.367 E0.3946
G1 X133.726 Y126.872 E0.4928
G1 X136.537 Y126.700 E0.5939
G1 X163.464 Y126.700 E1.5612
G1 X166.248 Y126.869 E1.6614
G1 X168.956 Y127.365 E1.7603
G1 X171.578 Y128.181 E1.8589
G1 X174.094 Y129.314 E1.9581
G1 X176.451 Y130.738 E2.0569
G1 X178.607 Y132.426 E2.1553
G1 X180.574 Y134.393 E2.2552
G1 X182.260 Y136.547 E2.3535
G1 X183.676 Y138.887 E2.4517
G1 X184.816 Y141.416 E2.5514
G1 X185.635 Y144.044 E2.6503
G1 X186.133 Y146.770 E2.7498
G1 X186.300 Y149.536 E2.8494
G1 X186.300 Y169.448 E3.5646
G1 X186.238 Y170.156 E3.5901
G1 X186.067 Y170.796 E3.6139
G1 X185.788 Y171.395 E3.6377
G1 X185.409 Y171.937 E3.6614
G1 X184.941 Y172.406 E3.6852
G1 X184.400 Y172.785 E3.7090
G1 X183.800 Y173.065 E3.7327
G1 X183.162 Y173.237 E3.7565
G1 X182.451 Y173.300 E3.7821
G1 X113.700 Y173.300 E6.2517
G1 X113.700 Y149.536 E7.1053
G1 X113.868 Y146.756 E7.2054
G1 X114.363 Y144.052 E7.3041
G1 X115.182 Y141.421 E7.4031
G1 X116.314 Y138.906 E7.5022
G1 X117.635 Y136.720 E7.5939
G1 X117.738 Y136.550 E7.6011
G1 X119.462 Y134.355 E7.7013
G1 X121.397 Y132.423 E7.7996
G1 X121.079 Y132.063 F12000
G92 E0
G1 X123.276 Y130.342 E0.1003 F4200
G1 X125.667 Y128.896 E0.2006
G1 X128.246 Y127.734 E0.3022
G1 X130.921 Y126.900 E0.4029
G1 X133.667 Y126.395 E0.5032
G1 X136.522 Y126.220 E0.6059
G1 X163.478 Y126.220 E1.5742
G1 X166.306 Y126.392 E1.6760
G1 X169.071 Y126.898 E1.7770
G1 X171.748 Y127.732 E1.8777
G1 X174.318 Y128.888 E1.9789
G1 X176.724 Y130.342 E2.0799
G1 X178.926 Y132.066 E2.1803
G1 X180.934 Y134.074 E2.2823
G1 X182.656 Y136.273 E2.3827
G1 X184.102 Y138.663 E2.4830
G1 X185.266 Y141.245 E2.5848
G1 X186.102 Y143.929 E2.6857
G1 X186.611 Y146.712 E2.7873
G1 X186.780 Y149.522 E2.8885
G1 X186.780 Y169.469 E3.6050
G1 X186.713 Y170.240 E3.6328
G1 X186.520 Y170.960 E3.6596
G1 X186.205 Y171.636 E3.6863
G1 X185.778 Y172.247 E3.7131
G1 X185.251 Y172.774 E3.7399
G1 X184.641 Y173.202 E3.7667
G1 X183.966 Y173.518 E3.7935
G1 X183.246 Y173.711 E3.8202
G1 X182.472 Y173.780 E3.8481
G1 X113.220 Y173.780 E6.3357
G1 X113.220 Y149.522 E7.2071
G1 X113.391 Y146.698 E7.3087
G1 X113.896 Y143.937 E7.4095
G1 X114.732 Y141.251 E7.5106
G1 X115.888 Y138.682 E7.6118
G1 X117.225 Y136.471 E7.7046
G1 X117.342 Y136.277 E7.7127
G1 X119.102 Y134.035 E7.8151
G1 X121.079 Y132.063 E7.9154
; outer perimeter
G1 X120.760 Y131.702 F12000
G92 E0
G1 X123.003 Y129.946 E0.1023 F2400
G1 X125.443 Y128.470 E0.2048
G1 X128.075 Y127.285 E0.3085
G1 X130.806 Y126.433 E0.4112
G1 X133.609 Y125.918 E0.5136
G1 X136.507 Y125.740 E0.6179
G1 X163.493 Y125.740 E1.5872
G1 X166.364 Y125.914 E1.6906
G1 X169.186 Y126.431 E1.7936
G1 X171.918 Y127.282 E1.8964
G1 X174.541 Y128.462 E1.9997
G1 X176.997 Y129.946 E2.1028
G1 X179.245 Y131.706 E2.2053
G1 X181.294 Y133.755 E2.3094
G1 X183.052 Y136.000 E2.4119
G1 X184.528 Y138.439 E2.5143
G1 X185.715 Y141.075 E2.6181
G1 X186.569 Y143.814 E2.7212
G1 X187.088 Y146.654 E2.8249
G1 X187.260 Y149.507 E2.9276
G1 X187.260 Y169.489 E3.6453
G1 X187.187 Y170.323 E3.6754
G1 X186.973 Y171.125 E3.7052
G1 X186.623 Y171.877 E3.7350
G1 X186.148 Y172.556 E3.7648
G1 X185.561 Y173.143 E3.7946
G1 X184.882 Y173.620 E3.8244
G1 X184.131 Y173.971 E3.8542
G1 X183.330 Y174.186 E3.8840
G1 X182.493 Y174.260 E3.9141
G1 X112.740 Y174.260 E6.4197
G1 X112.740 Y149.507 E7.3089
G1 X112.913 Y146.640 E7.4120
G1 X113.429 Y143.822 E7.5150
G1 X114.283 Y141.080 E7.6181
G1 X115.462 Y138.459 E7.7214
G1 X116.814 Y136.223 E7.8152
G1 X116.947 Y136.003 E7.8244
G1 X118.743 Y133.716 E7.9289
G1 X120.760 Y131.702 E8.0313
; inner perimeter
G1 X129.744 Y136.640 F12000
G92 E0
G1 X128.640 Y137.744 E0.0561 F4200
G1 X127.743 Y139.028 E0.1123
G1 X127.085 Y140.437 E0.1682
G1 X126.681 Y141.945 E0.2243
G1 X126.545 Y143.500 E0.2803
G1 X126.681 Y145.055 E0.3364
G1 X127.085 Y146.563 E0.3925
G1 X127.745 Y147.977 E0.4485
G1 X128.640 Y149.256 E0.5046
G1 X129.744 Y150.360 E0.5607
G1 X131.023 Y151.255 E0.6168
G1 X132.437 Y151.915 E0.6728
G1 X133.945 Y152.319 E0.7289
G1 X135.500 Y152.455 E0.7850
G1 X137.055 Y152.319 E0.8410
G1 X138.563 Y151.915 E0.8971
G1 X139.977 Y151.255 E0.9532
G1 X141.256 Y150.360 E1.0092
G1 X142.360 Y149.256 E1.0653
G1 X143.255 Y147.977 E1.1214
G1 X143.915 Y146.563 E1.1774
G1 X144.319 Y145.055 E1.2335
G1 X144.455 Y143.500 E1.2896
G1 X144.319 Y141.945 E1.3456
G1 X143.915 Y140.437 E1.4017
G1 X143.255 Y139.023 E1.4578
G1 X142.360 Y137.744 E1.5138
G1 X141.256 Y136.640 E1.5699
G1 X139.977 Y135.745 E1.6260
G1 X138.563 Y135.085 E1.6821
G1 X137.055 Y134.681 E1.7381
G1 X135.500 Y134.545 E1.7942
G1 X133.945 Y134.681 E1.8503
G1 X132.437 Y135.085 E1.9063
G1 X131.023 Y135.745 E1.9624
G1 X129.744 Y136.640 E2.0185
G1 X130.054 Y137.009 F12000
G92 E0
G1 X129.009 Y138.054 E0.0531 F4200
G1 X128.160 Y139.269 E0.1063
G1 X127.538 Y140.602 E0.1592
G1 X127.156 Y142.029 E0.2122
G1 X127.027 Y143.500 E0.2653
G1 X127.156 Y144.971 E0.3183
G1 X127.538 Y146.398 E0.3714
G1 X128.162 Y147.736 E0.4244
G1 X129.010 Y148.946 E0.4775
G1 X130.054 Y149.990 E0.5305
G1 X131.264 Y150.838 E0.5836
G1 X132.602 Y151.462 E0.6366
G1 X134.029 Y151.844 E0.6897
G1 X135.500 Y151.973 E0.7427
G1 X136.971 Y151.844 E0.7958
G1 X138.398 Y151.462 E0.8488
G1 X139.736 Y150.838 E0.9019
G1 X140.946 Y149.990 E0.9549
G1 X141.990 Y148.946 E1.0080
G1 X142.838 Y147.736 E1.0610
G1 X143.462 Y146.398 E1.1141
G1 X143.844 Y144.971 E1.1671
G1 X143.973 Y143.500 E1.2202
G1 X143.844 Y142.029 E1.2732
G1 X143.462 Y140.602 E1.3263
G1 X142.838 Y139.264 E1.3793
G1 X141.990 Y138.054 E1.4324
G1 X140.946 Y137.010 E1.4854
G1 X139.736 Y136.162 E1.5385
G1 X138.398 Y135.538 E1.5915
G1 X136.971 Y135.156 E1.6446
G1 X135.500 Y135.027 E1.6976
G1 X134.029 Y135.156 E1.7507
G1 X132.602 Y135.538 E1.8038
G1 X131.264 Y136.162 E1.8568
G1 X130.054 Y137.009 E1.9099
; outer perimeter
G1 X130.364 Y137.379 F12000
G92 E0
G1 X129.379 Y138.364 E0.0500 F2400
G1 X128.577 Y139.509 E0.1003
G1 X127.991 Y140.767 E0.1501
G1 X127.630 Y142.112 E0.2001
G1 X127.509 Y143.500 E0.2502
G1 X127.630 Y144.888 E0.3002
G1 X127.991 Y146.233 E0.3502
G1 X128.580 Y147.495 E0.4003
G1 X129.379 Y148.636 E0.4503
G1 X130.364 Y149.621 E0.5003
G1 X131.505 Y150.420 E0.5504
G1 X132.767 Y151.009 E0.6004
G1 X134.112 Y151.370 E0.6504
G1 X135.500 Y151.491 E0.7005
G1 X136.888 Y151.370 E0.7505
G1 X138.233 Y151.009 E0.8006
G1 X139.495 Y150.420 E0.8506
G1 X140.636 Y149.621 E0.9006
G1 X141.621 Y148.636 E0.9507
G1 X142.420 Y147.495 E1.0007
G1 X143.009 Y146.233 E1.0507
G1 X143.370 Y144.888 E1.1008
G1 X143.491 Y143.500 E1.1508
G1 X143.370 Y142.112 E1.2008
G1 X143.009 Y140.767 E1.2509
G1 X142.420 Y139.505 E1.3009
G1 X141.621 Y138.364 E1.3509
G1 X140.636 Y137.379 E1.4010
G1 X139.495 Y136.580 E1.4510
G1 X138.233 Y135.991 E1.5010
G1 X136.888 Y135.630 E1.5511
G1 X135.500 Y135.509 E1.6011
G1 X134.112 Y135.630 E1.6511
G1 X132.767 Y135.991 E1.7012
G1 X131.505 Y136.580 E1.7512
G1 X130.364 Y137.379 E1.8012
; inner perimeter
G1 X130.373 Y137.378 F12000
G1 X131.507 Y136.584 F12000
G1 X132.769 Y135.995 F12000
G1 X134.113 Y135.635 F12000
G1 X135.500 Y135.514 F12000
G1 X136.887 Y135.635 F12000
G1 X138.231 Y135.995 F12000
G1 X139.493 Y136.584 F12000
G1 X139.975 Y136.921 F12000
G1 X157.465 Y136.088 F12000
G92 E0
G1 X157.171 Y136.507 E0.0184 F4200
G1 X156.955 Y136.971 E0.0368
G1 X156.822 Y137.466 E0.0552
G1 X156.778 Y137.976 E0.0735
G1 X156.822 Y138.485 E0.0919
G1 X156.955 Y138.980 E0.1103
G1 X157.171 Y139.444 E0.1287
G1 X157.465 Y139.863 E0.1471
G1 X157.826 Y140.225 E0.1655
G1 X158.247 Y140.519 E0.1839
G1 X158.717 Y140.737 E0.2025
G1 X159.341 Y140.904 E0.2257
G1 X159.200 Y141.207 E0.2377
G1 X158.897 Y142.336 E0.2797
G1 X158.795 Y143.500 E0.3217
G1 X158.897 Y144.664 E0.3637
G1 X159.200 Y145.793 E0.4056
G1 X159.469 Y146.371 E0.4285
G1 X158.964 Y146.506 E0.4473
G1 X158.496 Y146.724 E0.4659
G1 X158.074 Y147.020 E0.4844
G1 X157.709 Y147.384 E0.5029
G1 X157.413 Y147.807 E0.5214
G1 X157.195 Y148.274 E0.5400
G1 X157.062 Y148.772 E0.5585
G1 X157.017 Y149.286 E0.5770
G1 X157.062 Y149.800 E0.5955
G1 X157.196 Y150.301 E0.6142
G1 X157.417 Y150.772 E0.6328
G1 X157.709 Y151.188 E0.6511
G1 X158.074 Y151.553 E0.6696
G1 X158.496 Y151.849 E0.6882
G1 X158.964 Y152.067 E0.7067
G1 X159.462 Y152.200 E0.7252
G1 X159.976 Y152.245 E0.7437
G1 X160.489 Y152.200 E0.7623
G1 X160.988 Y152.067 E0.7808
G1 X161.455 Y151.849 E0.7993
G1 X161.877 Y151.553 E0.8178
G1 X162.242 Y151.188 E0.8364
G1 X162.538 Y150.766 E0.8549
G1 X162.752 Y150.306 E0.8731
G1 X162.925 Y149.669 E0.8968
G1 X163.207 Y149.800 E0.9080
G1 X164.336 Y150.103 E0.9500
G1 X165.500 Y150.205 E0.9919
G1 X166.664 Y150.103 E1.0339
G1 X167.793 Y149.800 E1.0759
G1 X168.374 Y149.529 E1.0989
G1 X168.510 Y150.037 E1.1178
G1 X168.732 Y150.508 E1.1365
G1 X169.023 Y150.924 E1.1547
G1 X169.387 Y151.288 E1.1732
G1 X169.809 Y151.583 E1.1917
G1 X170.276 Y151.801 E1.2102
G1 X170.773 Y151.934 E1.2287
G1 X171.286 Y151.979 E1.2472
G1 X171.799 Y151.934 E1.2657
G1 X172.297 Y151.801 E1.2842
G1 X172.764 Y151.583 E1.3027
G1 X173.185 Y151.288 E1.3212
G1 X173.550 Y150.924 E1.3397
G1 X173.845 Y150.502 E1.3582
G1 X174.063 Y150.035 E1.3767
G1 X174.196 Y149.538 E1.3952
G1 X174.241 Y149.024 E1.4137
G1 X174.196 Y148.511 E1.4322
