; G-Code generated by Simplify3D(R) Version 4.0.0
; Nov 1, 2018 at 11:30:30 AM
; Settings Summary
;   processName,Process1
;   applyToModels,Right Top Support
;   profileName,Hypercube
;   profileVersion,2018-10-17 21:38:10
;   baseProfile,Default
;   printMaterial,PLA
;   printQuality,Medium
;   printExtruders,
;   extruderName,Primary Extruder
;   extruderToolheadNumber,0
;   extruderDiameter,0.4
;   extruderAutoWidth,1
;   extruderWidth,0.48
;   extrusionMultiplier,0.9
;   extruderUseRetract,1
;   extruderRetractionDistance,4
;   extruderExtraRestartDistance,0
;   extruderRetractionZLift,0
;   extruderRetractionSpeed,12000
;   extruderUseCoasting,0
;   extruderCoastingDistance,3
;   extruderUseWipe,0
;   extruderWipeDistance,6
;   primaryExtruder,0
;   layerHeight,0.2
;   topSolidLayers,5
;   bottomSolidLayers,5
;   perimeterOutlines,3
;   printPerimetersInsideOut,1
;   startPointOption,3
;   startPointOriginX,0
;   startPointOriginY,0
;   sequentialIslands,0
;   spiralVaseMode,0
;   firstLayerHeightPercentage,90
;   firstLayerWidthPercentage,100
;   firstLayerUnderspeed,0.5
;   useRaft,0
;   raftExtruder,0
;   raftTopLayers,3
;   raftBaseLayers,2
;   raftOffset,3
;   raftSeparationDistance,0.14
;   raftTopInfill,100
;   aboveRaftSpeedMultiplier,0.3
;   useSkirt,0
;   skirtExtruder,0
;   skirtLayers,1
;   skirtOutlines,2
;   skirtOffset,8
;   usePrimePillar,0
;   primePillarExtruder,999
;   primePillarWidth,12
;   primePillarLocation,7
;   primePillarSpeedMultiplier,1
;   useOozeShield,0
;   oozeShieldExtruder,999
;   oozeShieldOffset,2
;   oozeShieldOutlines,1
;   oozeShieldSidewallShape,1
;   oozeShieldSidewallAngle,30
;   oozeShieldSpeedMultiplier,1
;   infillExtruder,0
;   internalInfillPattern,Rectilinear
;   externalInfillPattern,Rectilinear
;   infillPercentage,10
;   outlineOverlapPercentage,15
;   infillExtrusionWidthPercentage,100
;   minInfillLength,5
;   infillLayerInterval,1
;   internalInfillAngles,45,-45
;   overlapInternalInfillAngles,0
;   externalInfillAngles,45,-45
;   generateSupport,0
;   supportExtruder,0
;   supportInfillPercentage,30
;   supportExtraInflation,0
;   supportBaseLayers,0
;   denseSupportExtruder,0
;   denseSupportLayers,0
;   denseSupportInfillPercentage,70
;   supportLayerInterval,1
;   supportHorizontalPartOffset,0.3
;   supportUpperSeparationLayers,1
;   supportLowerSeparationLayers,1
;   supportType,0
;   supportGridSpacing,4
;   maxOverhangAngle,45
;   supportAngles,0
;   temperatureName,Primary Extruder,Heat Bed
;   temperatureNumber,0,0
;   temperatureSetpointCount,1,1
;   temperatureSetpointLayers,1,1
;   temperatureSetpointTemperatures,210,60
;   temperatureStabilizeAtStartup,1,1
;   temperatureHeatedBed,0,1
;   temperatureRelayBetweenLayers,0,0
;   temperatureRelayBetweenLoops,0,0
;   fanLayers,1,2
;   fanSpeeds,0,100
;   blipFanToFullPower,0
;   adjustSpeedForCooling,1
;   minSpeedLayerTime,15
;   minCoolingSpeedSlowdown,20
;   increaseFanForCooling,0
;   minFanLayerTime,45
;   maxCoolingFanSpeed,100
;   increaseFanForBridging,0
;   bridgingFanSpeed,100
;   use5D,1
;   relativeEdistances,0
;   allowEaxisZeroing,1
;   independentExtruderAxes,0
;   includeM10123,0
;   stickySupport,1
;   applyToolheadOffsets,0
;   gcodeXoffset,0
;   gcodeYoffset,0
;   gcodeZoffset,0
;   overrideMachineDefinition,0
;   machineTypeOverride,0
;   strokeXoverride,200
;   strokeYoverride,200
;   strokeZoverride,200
;   originOffsetXoverride,0
;   originOffsetYoverride,0
;   originOffsetZoverride,0
;   homeXdirOverride,-1
;   homeYdirOverride,-1
;   homeZdirOverride,-1
;   flipXoverride,1
;   flipYoverride,-1
;   flipZoverride,1
;   toolheadOffsets,0,0|0,0|0,0|0,0|0,0|0,0
;   overrideFirmwareConfiguration,1
;   firmwareTypeOverride,RepRap (Marlin/Repetier/Sprinter)
;   GPXconfigOverride,r2
;   baudRateOverride,250000
;   overridePrinterModels,0
;   printerModelsOverride
;   startingGcode,G28 ; home all axes,G92 E0 ; reset extruder,G1 Z1.0 F3000 ; move z up little to prevent scratching of surface,G1 X0.1 Y20 Z0.3 F5000.0 ; move to start-line position,G1 X0.1 Y200.0 Z0.3 F1500.0 E15 ; draw 1st line,G1 X0.4 Y200.0 Z0.3 F5000.0 ; move to side a little,G1 X0.4 Y20 Z0.3 F1500.0 E30 ; draw 2nd line,G92 E0 ; reset extruder,; done purging extruder,G1 Z1.0 F3000 ; move z up little to prevent scratching of surface,M117 Hypercube Tunned
;   layerChangeGcode,
;   retractionGcode,
;   toolChangeGcode,
;   endingGcode,G1 E-5 F1000,,M104 S0; turn off extruder,M140 S0 ; turn off bed,G1 X0 Y200 Z200 F1000 ; prepare for part removal,M84 ; disable motors,M106 S0 ; turn off fan,,G1 E5 F1000,,M300 S294 P200 ;D4: 294,M300 S588 P200 ;D5: 588,M300 S440 P200 ;A4: 440,M300 S392 P200 ;G4: 392,M300 S784 P200 ;G5: 784,M300 S440 P200 ;A4: 440,M300 S740 P200 ;F#5: 740,M300 S440 P200 ;A4: 440
;   exportFileFormat,gcode
;   celebration,0
;   celebrationSong,Star Wars
;   postProcessing,
;   defaultSpeed,12000
;   outlineUnderspeed,0.4
;   solidInfillUnderspeed,0.6
;   supportUnderspeed,0.8
;   rapidXYspeed,12000
;   rapidZspeed,12000
;   minBridgingArea,50
;   bridgingExtraInflation,0
;   bridgingExtrusionMultiplier,1
;   bridgingSpeedMultiplier,1
;   useFixedBridgingAngle,0
;   fixedBridgingAngle,0
;   applyBridgingToPerimeters,1
;   filamentDiameters,1.75|1.75|1.75|1.75|1.75|1.75
;   filamentPricesPerKg,35|46|46|46|46|46
;   filamentDensities,1.25|1.25|1.25|1.25|1.25|1.25
;   useMinPrintHeight,0
;   minPrintHeight,0
;   useMaxPrintHeight,0
;   maxPrintHeight,30
;   useDiaphragm,0
;   diaphragmLayerInterval,20
;   robustSlicing,1
;   mergeAllIntoSolid,0
;   onlyRetractWhenCrossingOutline,1
;   retractBetweenLayers,1
;   useRetractionMinTravel,0
;   retractionMinTravel,3
;   retractWhileWiping,1
;   onlyWipeOutlines,0
;   avoidCrossingOutline,1
;   maxMovementDetourFactor,8
;   toolChangeRetractionDistance,12
;   toolChangeExtraRestartDistance,-0.5
;   toolChangeRetractionSpeed,600
;   externalThinWallType,0
;   internalThinWallType,2
;   thinWallAllowedOverlapPercentage,10
;   singleExtrusionMinLength,1
;   singleExtrusionMinPrintingWidthPercentage,50
;   singleExtrusionMaxPrintingWidthPercentage,200
;   singleExtrusionEndpointExtension,0.2
;   horizontalSizeCompensation,0
G90
M82
M106 S0
M140 S60
M190 S60
M104 S210 T0
M109 S210 T0
G28 ; home all axes
G92 E0 ; reset extruder
G1 Z1.0 F3000 ; move z up little to prevent scratching of surface
G1 X0.1 Y20 Z0.3 F5000.0 ; move to start-line position
G1 X0.1 Y200.0 Z0.3 F1500.0 E15 ; draw 1st line
G1 X0.4 Y200.0 Z0.3 F5000.0 ; move to side a little
G1 X0.4 Y20 Z0.3 F1500.0 E30 ; draw 2nd line
G92 E0 ; reset extruder
; done purging extruder
G1 Z1.0 F3000 ; move z up little to prevent scratching of surface
M117 Hypercube Tunned
G92 E0
G1 E-4.0000 F12000
G1 Z0.180 F12000
; process Process1
; layer 1, Z = 0.180
T0
; tool H0.200 W0.480
; inner perimeter
G1 X99.200 Y141.139 F12000
G1 E0.0000 F3600
G92 E0
G1 X139.200 Y141.139 E1.4368 F4200
G1 X139.200 Y121.139 E2.1553
G1 X142.882 Y121.139 E2.2875
G1 X143.009 Y122.928 E2.3519
G1 X143.640 Y125.858 E2.4596
G1 X144.678 Y128.669 E2.5672
G1 X146.100 Y131.303 E2.6748
G1 X147.877 Y133.708 E2.7822
G1 X149.979 Y135.844 E2.8898
G1 X152.369 Y137.667 E2.9978
G1 X154.985 Y139.130 E3.1055
G1 X157.780 Y140.209 E3.2131
G1 X163.339 Y141.497 E3.4181
G1 X165.867 Y142.486 E3.5156
G1 X168.227 Y143.829 E3.6131
G1 X170.369 Y145.498 E3.7107
G1 X174.401 Y149.702 E3.9199
G1 X176.855 Y151.603 E4.0314
G1 X179.559 Y153.126 E4.1429
G1 X182.457 Y154.238 E4.2544
G1 X185.487 Y154.915 E4.3659
G1 X188.538 Y155.139 E4.4758
G1 X200.800 Y155.139 E4.9163
G1 X200.800 Y158.239 E5.0276
G1 X194.574 Y158.239 E5.2512
G1 X193.986 Y157.439 E5.2869
G1 X193.325 Y156.806 E5.3198
G1 X192.564 Y156.295 E5.3527
G1 X191.727 Y155.923 E5.3856
G1 X190.838 Y155.701 E5.4185
G1 X189.924 Y155.635 E5.4514
G1 X189.012 Y155.727 E5.4844
G1 X188.130 Y155.975 E5.5173
G1 X187.304 Y156.370 E5.5502
G1 X186.558 Y156.903 E5.5831
G1 X185.915 Y157.555 E5.6160
G1 X185.394 Y158.308 E5.6489
G1 X185.010 Y159.140 E5.6818
G1 X184.775 Y160.026 E5.7147
G1 X184.695 Y160.939 E5.7476
G1 X184.775 Y161.852 E5.7806
G1 X185.010 Y162.737 E5.8135
G1 X185.394 Y163.569 E5.8464
G1 X185.915 Y164.322 E5.8793
G1 X186.558 Y164.975 E5.9122
G1 X187.304 Y165.507 E5.9451
G1 X188.130 Y165.903 E5.9780
G1 X189.012 Y166.151 E6.0109
G1 X189.924 Y166.243 E6.0439
G1 X190.838 Y166.177 E6.0768
G1 X191.727 Y165.954 E6.1097
G1 X192.564 Y165.582 E6.1426
G1 X193.325 Y165.072 E6.1755
G1 X193.986 Y164.438 E6.2084
G1 X194.574 Y163.639 E6.2441
G1 X200.800 Y163.639 E6.4677
G1 X200.800 Y166.739 E6.5790
G1 X187.265 Y166.739 E7.0652
G1 X184.487 Y166.924 E7.1653
G1 X181.718 Y167.485 E7.2667
G1 X179.049 Y168.409 E7.3682
G1 X176.527 Y169.680 E7.4696
G1 X174.196 Y171.274 E7.5711
G1 X170.185 Y174.880 E7.7648
G1 X168.053 Y176.321 E7.8572
G1 X165.744 Y177.458 E7.9497
G1 X163.301 Y178.269 E8.0422
G1 X160.771 Y178.739 E8.1346
G1 X158.200 Y178.858 E8.2271
G1 X155.636 Y178.626 E8.3195
G1 X153.117 Y178.042 E8.4124
G1 X149.601 Y176.780 E8.5466
G1 X146.210 Y175.178 E8.6813
G1 X142.989 Y173.256 E8.8160
G1 X139.969 Y171.032 E8.9508
G1 X137.178 Y168.527 E9.0855
G1 X134.642 Y165.764 E9.2202
G1 X129.965 Y159.562 E9.4992
G1 X127.255 Y156.613 E9.6431
G1 X124.275 Y153.946 E9.7868
G1 X121.042 Y151.574 E9.9308
G1 X117.584 Y149.522 E10.0752
G1 X113.953 Y147.821 E10.2192
G1 X110.175 Y146.482 E10.3633
G1 X106.288 Y145.516 E10.5071
G1 X102.371 Y144.940 E10.6493
G1 X99.200 Y144.781 E10.7634
G1 X99.200 Y141.139 E10.8942
G1 X98.720 Y140.659 F12000
G92 E0
G1 X138.720 Y140.659 E1.4368 F4200
G1 X138.720 Y120.659 E2.1553
G1 X143.329 Y120.659 E2.3208
G1 X143.485 Y122.860 E2.4001
G1 X144.102 Y125.723 E2.5053
G1 X145.116 Y128.471 E2.6105
G1 X146.506 Y131.045 E2.7156
G1 X148.243 Y133.395 E2.8206
G1 X150.298 Y135.483 E2.9258
G1 X152.633 Y137.265 E3.0313
G1 X155.189 Y138.694 E3.1365
G1 X157.921 Y139.749 E3.2417
G1 X163.481 Y141.038 E3.4467
G1 X166.075 Y142.052 E3.5467
G1 X168.495 Y143.429 E3.6468
G1 X170.691 Y145.141 E3.7468
G1 X174.723 Y149.344 E3.9560
G1 X177.121 Y151.202 E4.0650
G1 X179.764 Y152.691 E4.1739
G1 X182.596 Y153.777 E4.2829
G1 X185.557 Y154.439 E4.3919
G1 X188.556 Y154.659 E4.4999
G1 X201.280 Y154.659 E4.9570
G1 X201.280 Y158.719 E5.1028
G1 X194.262 Y158.719 E5.3549
G1 X194.118 Y158.428 E5.3665
G1 X193.624 Y157.757 E5.3965
G1 X193.023 Y157.181 E5.4264
G1 X192.331 Y156.717 E5.4563
G1 X191.570 Y156.379 E5.4862
G1 X190.762 Y156.177 E5.5162
G1 X189.931 Y156.117 E5.5461
G1 X189.102 Y156.200 E5.5760
G1 X188.300 Y156.426 E5.6059
G1 X187.549 Y156.785 E5.6358
G1 X186.871 Y157.269 E5.6658
G1 X186.286 Y157.862 E5.6957
G1 X185.812 Y158.547 E5.7256
G1 X185.463 Y159.304 E5.7555
G1 X185.249 Y160.109 E5.7854
G1 X185.177 Y160.939 E5.8154
G1 X185.249 Y161.769 E5.8453
G1 X185.463 Y162.574 E5.8752
G1 X185.812 Y163.330 E5.9051
G1 X186.286 Y164.015 E5.9351
G1 X186.871 Y164.608 E5.9650
G1 X187.549 Y165.092 E5.9949
G1 X188.300 Y165.452 E6.0248
G1 X189.102 Y165.677 E6.0548
G1 X189.931 Y165.761 E6.0847
G1 X190.762 Y165.701 E6.1146
G1 X191.570 Y165.499 E6.1445
G1 X192.331 Y165.161 E6.1744
G1 X193.023 Y164.697 E6.2044
G1 X193.624 Y164.120 E6.2343
G1 X194.118 Y163.449 E6.2642
G1 X194.262 Y163.159 E6.2759
G1 X201.280 Y163.159 E6.5279
G1 X201.280 Y167.219 E6.6738
G1 X187.281 Y167.219 E7.1767
G1 X184.551 Y167.401 E7.2749
G1 X181.845 Y167.949 E7.3741
G1 X179.237 Y168.852 E7.4732
G1 X176.772 Y170.094 E7.5724
G1 X174.493 Y171.652 E7.6715
G1 X170.481 Y175.259 E7.8653
G1 X168.295 Y176.737 E7.9601
G1 X165.927 Y177.904 E8.0550
G1 X163.421 Y178.735 E8.1498
G1 X160.826 Y179.217 E8.2446
G1 X158.189 Y179.339 E8.3394
G1 X155.560 Y179.101 E8.4343
G1 X152.981 Y178.503 E8.5293
G1 X149.417 Y177.224 E8.6654
G1 X145.984 Y175.602 E8.8018
G1 X142.723 Y173.656 E8.9382
G1 X139.666 Y171.405 E9.0745
G1 X136.840 Y168.869 E9.2109
G1 X134.272 Y166.072 E9.3473
G1 X129.596 Y159.870 E9.6263
G1 X126.917 Y156.956 E9.7685
G1 X123.972 Y154.319 E9.9105
G1 X120.777 Y151.975 E10.0529
G1 X117.359 Y149.946 E10.1956
G1 X113.771 Y148.266 E10.3380
G1 X110.037 Y146.942 E10.4803
G1 X106.195 Y145.988 E10.6225
G1 X102.324 Y145.418 E10.7630
G1 X98.720 Y145.238 E10.8926
G1 X98.720 Y140.659 E11.0571
; outer perimeter
G1 X98.240 Y140.179 F12000
G92 E0
G1 X138.240 Y140.179 E1.4368 F2400
G1 X138.240 Y120.179 E2.1553
G1 X143.776 Y120.179 E2.3541
G1 X143.962 Y122.792 E2.4482
G1 X144.564 Y125.589 E2.5510
G1 X145.555 Y128.273 E2.6538
G1 X146.912 Y130.787 E2.7564
G1 X148.609 Y133.083 E2.8589
G1 X150.616 Y135.122 E2.9617
G1 X152.897 Y136.862 E3.0648
G1 X155.394 Y138.259 E3.1676
G1 X158.062 Y139.289 E3.2703
G1 X163.624 Y140.578 E3.4754
G1 X166.282 Y141.618 E3.5779
G1 X168.762 Y143.029 E3.6804
G1 X171.014 Y144.784 E3.7829
G1 X175.045 Y148.986 E3.9921
G1 X177.387 Y150.801 E4.0986
G1 X179.969 Y152.255 E4.2050
G1 X182.735 Y153.317 E4.3114
G1 X185.627 Y153.963 E4.4179
G1 X188.573 Y154.179 E4.5240
G1 X201.760 Y154.179 E4.9977
G1 X201.760 Y159.199 E5.1780
G1 X193.965 Y159.199 E5.4580
G1 X193.706 Y158.679 E5.4789
G1 X193.262 Y158.075 E5.5058
G1 X192.721 Y157.556 E5.5327
G1 X192.098 Y157.139 E5.5596
G1 X191.413 Y156.834 E5.5866
G1 X190.686 Y156.652 E5.6135
G1 X189.938 Y156.598 E5.6404
G1 X189.192 Y156.674 E5.6674
G1 X188.470 Y156.876 E5.6943
G1 X187.794 Y157.200 E5.7212
G1 X187.183 Y157.636 E5.7482
G1 X186.657 Y158.170 E5.7751
G1 X186.230 Y158.786 E5.8020
G1 X185.916 Y159.467 E5.8290
G1 X185.724 Y160.192 E5.8559
G1 X185.659 Y160.939 E5.8828
G1 X185.724 Y161.686 E5.9098
G1 X185.916 Y162.410 E5.9367
G1 X186.230 Y163.091 E5.9636
G1 X186.657 Y163.708 E5.9906
G1 X187.183 Y164.242 E6.0175
G1 X187.794 Y164.677 E6.0444
G1 X188.470 Y165.001 E6.0714
G1 X189.192 Y165.204 E6.0983
G1 X189.938 Y165.279 E6.1252
G1 X190.686 Y165.225 E6.1522
G1 X191.413 Y165.043 E6.1791
G1 X192.098 Y164.739 E6.2060
G1 X192.721 Y164.321 E6.2330
G1 X193.262 Y163.802 E6.2599
G1 X193.706 Y163.198 E6.2868
G1 X193.965 Y162.679 E6.3077
G1 X201.760 Y162.679 E6.5877
G1 X201.760 Y167.699 E6.7680
G1 X187.297 Y167.699 E7.2876
G1 X184.614 Y167.878 E7.3841
G1 X181.972 Y168.413 E7.4810
G1 X179.424 Y169.295 E7.5778
G1 X177.016 Y170.508 E7.6747
G1 X174.791 Y172.030 E7.7715
G1 X170.778 Y175.638 E7.9654
G1 X168.536 Y177.153 E8.0625
G1 X166.109 Y178.349 E8.1597
G1 X163.541 Y179.201 E8.2569
G1 X160.881 Y179.695 E8.3541
G1 X158.178 Y179.820 E8.4513
G1 X155.484 Y179.576 E8.5485
G1 X152.846 Y178.964 E8.6458
G1 X149.233 Y177.668 E8.7836
G1 X145.758 Y176.026 E8.9217
G1 X142.457 Y174.057 E9.0598
G1 X139.363 Y171.778 E9.1978
G1 X136.502 Y169.211 E9.3359
G1 X133.903 Y166.379 E9.4739
G1 X129.227 Y160.177 E9.7529
G1 X126.580 Y157.298 E9.8935
G1 X123.669 Y154.693 E10.0338
G1 X120.511 Y152.375 E10.1745
G1 X117.134 Y150.371 E10.3155
G1 X113.589 Y148.710 E10.4562
G1 X109.898 Y147.402 E10.5968
G1 X106.102 Y146.459 E10.7373
G1 X102.277 Y145.896 E10.8762
G1 X98.320 Y145.699 E11.0185
G1 X98.240 Y145.699 E11.0214
G1 X98.240 Y140.179 E11.2197
; inner perimeter
G1 X152.284 Y151.743 F12000
G92 E0
G1 X150.804 Y153.222 E0.0752 F4200
G1 X149.604 Y154.936 E0.1503
G1 X148.719 Y156.833 E0.2255
G1 X148.178 Y158.854 E0.3007
G1 X147.995 Y160.939 E0.3758
G1 X148.178 Y163.023 E0.4510
G1 X148.719 Y165.045 E0.5262
G1 X149.604 Y166.941 E0.6013
G1 X150.804 Y168.655 E0.6765
G1 X152.284 Y170.135 E0.7517
G1 X153.998 Y171.335 E0.8268
G1 X155.894 Y172.219 E0.9020
G1 X157.915 Y172.761 E0.9772
G1 X160.000 Y172.943 E1.0523
G1 X162.085 Y172.761 E1.1275
G1 X164.106 Y172.219 E1.2027
G1 X166.002 Y171.335 E1.2778
G1 X167.716 Y170.135 E1.3530
G1 X169.196 Y168.655 E1.4282
G1 X170.396 Y166.941 E1.5033
G1 X171.281 Y165.045 E1.5785
G1 X171.822 Y163.023 E1.6536
G1 X172.005 Y160.939 E1.7288
G1 X171.822 Y158.854 E1.8040
G1 X171.281 Y156.833 E1.8791
G1 X170.396 Y154.936 E1.9543
G1 X169.196 Y153.222 E2.0295
G1 X167.716 Y151.743 E2.1046
G1 X166.002 Y150.542 E2.1798
G1 X164.106 Y149.658 E2.2550
G1 X162.085 Y149.117 E2.3301
G1 X160.000 Y148.934 E2.4053
G1 X157.915 Y149.117 E2.4805
G1 X155.894 Y149.658 E2.5556
G1 X153.998 Y150.542 E2.6308
G1 X152.284 Y151.743 E2.7060
G1 X152.593 Y152.112 F12000
G92 E0
G1 X151.173 Y153.532 E0.0721 F4200
G1 X150.021 Y155.177 E0.1443
